img/ic_myPortfolio_active.svg

<svg width="24" height="24" viewBox="0 0 24 24" fill="none" xmlns="http://www.w3.org/2000/svg">
<path d="M13.0276 5.04523C16.0952 5.48744 18.5213 7.9196 18.9624 10.995H22C21.5288 6.25126 17.7594 2.47236 13.0276 2V5.04523V5.04523ZM18.9624 13.005C18.5213 16.0804 16.0952 18.5126 13.0276 18.9548V22C17.7594 21.5276 21.5288 17.7487 22 13.005H18.9624V13.005ZM11.0226 18.9548C7.62406 18.4623 5.00752 15.5377 5.00752 12C5.00752 8.46231 7.62406 5.53769 11.0226 5.04523V2C5.9599 2.50251 2 6.78392 2 12C2 17.2161 5.9599 21.4975 11.0226 22V18.9548V18.9548Z" fill="#22D091"/>
</svg>

<svg width="24" height="24" fill="none" xmlns="http://www.w3.org/2000/svg"><path d="M13.028 5.045a7.027 7.027 0 0 1 5.934 5.95H22C21.529 6.251 17.76 2.472 13.028 2v3.045zm5.934 7.96a7.027 7.027 0 0 1-5.934 5.95V22c4.731-.472 8.5-4.251 8.972-8.995h-3.038zm-7.94 5.95A7.032 7.032 0 0 1 5.009 12a7.032 7.032 0 0 1 6.015-6.955V2C5.96 2.503 2 6.784 2 12s3.96 9.497 9.023 10v-3.045z" fill="#22D091"/></svg>
